X:1
T:Vier Gesänge aus 'Wilhelm Meister', D.877
T:Lied der Mignon (Heiss mich nicht reden)
T:2. Lied der Mignon (Heiss mich nicht reden)
T:Vier Gesänge aus 'Wilhelm Meister' (D.877 ), Op.62
T:Johann Wolfgang von Goethe
T:Franz Schubert
T:OpenScore (CC0)
T:OpenScore (CC0)
T:OpenScore (CC0)
C:Franz Schubert
Z:Johann Wolfgang von Goethe
Z:OpenScore (CC0)
%%score 1 { ( 2 3 5 ) | ( 4 6 ) }
L:1/8
Q:1/4=42
M:2/2
K:G
V:1 treble nm="Mignon"
V:2 treble nm="Pianoforte"
V:3 treble 
V:5 treble 
V:4 bass 
V:6 bass 
V:1
"^Langsam" z8 | z8 | z8 | z8 |!p! G2 G A G2 F2 | (A2 B) F A2 G2 | B2 B B d3 c | B2 A2 G2 z G | %8
w: ||||Heiss mich nicht re- den,|heiss _ mich schwei- gen,|denn mein Ge- heim- niss|ist mir Pflicht; ich|
 G3 A (G2 F) G | A3/2 A/ B F A2 G B |!<(! B3 ^d!<)!!>(! eg fe!>)! | e2 (^d{ed}^c/d/) e2 z2 | %12
w: möch- te dir _ mein|gan- zes Inn- re zei- gen, al-|lein das Schick- * sal _|will es _ _ nicht.|
 z4 z2 z!p! G | G3 G A3/2 G/ A B | c d e3 d c A | G2 z c G E C A | G4 E2 z2 | z4 z2 z G | %18
w: Zur|rech- ten Zeit ver- treibt der|Son- ne Lauf die fin- stre|Nacht, und sie muss sich er-|hel- len;|der|
 G3 G A3/2 G/ A B | c d e3 d c A | G3/2 A/ B c G E C/c/ B/A/ | G4 E2 z2 | z8 | z8 | %24
w: har- te Fels schliesst  sei- nen|Bu- sen auf, miss- gönnt der|Er- de nicht die tief ver- borg'- * nen _|Quel- len.|||
 z4 z2 !fermata!z ^G | ^G3 A (G2 F) G | A3/2 A/ B F (A2 ^G) B | (B2 e) ^B (B2 ^c)!mp! c | %28
w: Ein|Je- der sucht _ im|Arm des Freun- des Ruh, _ dort|kann _ die Brust _ in|
 ^c3/2 =d/ ^G c B2 A f/e/ |{e} ^d ^c B/c/ F/B/ A2 ^G z | z4 z3/2 B/ B =G | =c3 G E3/2 G/ E C | %32
w: Kla- gen sich er- gie- ssen, in *|Kla- gen sich _ er- * gie- ssen;|al- lein ein|Schwur drückt mir die Lip- pen|
 A4 z c c =f | e4- e3 G | G3/2 G/ d c B4 | ^G2 z2 z2 z G | A3 A B3/2 B/ A B | c4 z c =f e | %38
w: zu, und nur ein|Gott _ ver-|mag sie auf- zu- schlie-|ssen; ein|Schwur drückt mir die Lip- pen|zu, und nur ein|
 ^d3 d ^f3!mf! B |!mp! G e g3/2 f/ (e2 ^d{ed}^c/d/) | e2 z2 z4 | z8 |] %42
w: Gott, ein Gott ver-|mag sie auf- zu- schlie- * * *|ssen.||
V:2
!pp! (.[B,EG]2 .[B,EG].[B,FA]) ([EG]2 [^DF]2) | (.[B,FA]2 .[B,GB].[B,^DF]) (([FA]2 [EG]2)) | %2
 [GB]2{B} (!>!dc) ([EGB]2 [EFA][^DFB]) | [G,B,E]2 [A,CE]2 [G,B,E]4 | %4
 [B,EG]2 [B,EG][B,FA] (([EG]2 [^DF]2)) | [B,FA]2 [B,GB][B,^DF] (([FA]2 [EG]2)) | %6
 [B,GB]2!<(! [B,GB][B,GB]!<)!!>(! ((([DBd]3 [CAc])))!>)! |!p! [B,DGB]2 [CDFA]2 [B,DG]4 | %8
 [B,DG]2 [B,DG][CDA] (([B,D-G]2 [A,DF]))[B,DG] |"_cresc." [CDA]2 [DB][A,DF] (A2 G2) | %10
!<(! [DGBd]2 [^DAB^d]2!<)!!>(! [EGBe]2 [EFc]2 | [EGB]2!>)!!mp! [B,FAB]2 [B,EGB]2 [EF]2 | %12
 ([EGB]2 A[^DFB]) [G,B,E]3 [CEG] | [CEG]3 [CEG] (.[C=FA]!<(!.[CEG].[CFA].[DB]) | %14
 (.[Ec].[DGd])!<)!!>(! [EGe]3 (.[DGd].[CGc]!>)!.[C=FA]) | (G>ABc-) cGcA | [DG]4 [CEG]2 AB/c/ | %17
 A4 =E/=F/ [EG]3 | [CEG]3 [CEG]!<(! [C=FA]>[CEG][CFA][DB] | %19
 [Ec][DGd]!<)!!>(! [EGe]3 [DGd][CGc][C=FA]!>)! | G>ABc- [CEc][CEG][CEc][CDA] | [DG]4 [CEG]3 [EG] | %22
 (!>!A3 B/c/ B3) B |"_cresc." B2- (B/=f/e/d/) c3!p! [E^Fc] | [FB]6- !fermata![DFB] [B,E^G] | %25
 [B,E^G]2 [B,EG][B,FA] (([B,-EG]2 [B,^DF]))[B,EG] | %26
 [B,FA]>[B,FA][B,^GB][B,^DF] (([B,-FA]2 [B,EG])) z | %27
 [B,EB]3 [^B,E^B]!<(! (([B,E-B]2 [^CE^c]))[CEc]!<)! | %28
!>(! ^c>d!>)!^Gc (([^C-GB]2 [CFA]))!>(! ([F=cf]/[^EBe]/) | %29
 ([^DA^d]!>)![E=G^A^c][FB][B,F=A]) (([FA]2 [E^G]2)) |"_cresc." [B,E=GB]4 [B,=FGB]4 | %31
 [CEGc]4 [CEGc]4 | [C=FAc]8 | [EG^ce]8 | [GB]2 d=c [FB]4 | [B,=F^G]4!mp!"_cresc." [B,FG]4 | %36
 [C=FA]4 [DF^GB]4 | [C=FAc]8 | [C^DAc]4 (([B,-^FAB]4 | [B,EG]2)) [CEG]2 [B,EG]2 [A,B,F]2 | %40
!p!!<(! ([G,B,E][EGB]!<)!!>(!{B} dc!>)! [EGB]2 !>![EFA][^DFB]) |!pp! [^G,B,E]8 |] %42
V:3
 x4 B,4 | x4 B,4 | E2 [EF]2 z (B, C)B,/A,/ | x8 | x4 B,4 | x4 B,4 | x8 | x8 | x8 | x4 D4 | x8 | %11
 x6{B} (!>!=dc) | z (B, !>![CEF])B,/A,/ x4 | x8 | x8 | [CE]4- [CE][CE][CE][CD] | C2 B,2 x2 [C_E]2 | %17
 C2 B,2 x C3 | x8 | x8 | [CE]4- x4 | (C2 B,2) x4 | (_E4 D3) D | =F4 E3 x | E2 ^D4- x2 | x8 | x8 | %27
 x8 | [=D^E]2 [^CE][C^G] x2 x2 | x4 B,4 | x8 | x8 | x8 | x8 | E2 [EF]2 (E2 ^D2) | x8 | x8 | x8 | %38
 x8 | x8 | x2 [EF]2 z (B, C)B,/A,/ | x8 |] %42
V:4
 [E,,E,]4 [B,,,B,,]4 | [B,,,B,,]3 [B,,,B,,] [E,,E,]4 | [E,,E,]2 [A,,,A,,]2 [B,,,B,,]4 | %3
 [E,,E,]2 [E,,E,]2 [E,,E,]4 |!pp! [E,,E,]4 [B,,,B,,]4 | [B,,,B,,]3 [B,,,B,,] [E,,E,]4 | %6
 [E,,E,]3 [E,,E,] [A,,,A,,]4 | [B,,,B,,]2 [D,,D,]2 [G,,D,]4 | [G,,D,]3 [G,,D,] [D,,D,]4 | %9
 [D,,D,]3 [D,,D,] [G,,D,]4 | [G,,G,]2 [F,,F,]2!f! [E,,E,]2 [A,,,A,,]2 | %11
 [B,,,B,,]2 [B,,,B,,]2!p! [E,,E,]2!pp! [A,,,A,,]2 | [B,,,B,,]4 [E,,E,]3 [C,E,G,] | %13
 [C,E,G,]3 [C,E,G,] [C,=F,A,][C,E,G,][C,F,A,][C,D,B,] | %14
 [C,E,C][C,G,B,] [C,G,C]3 [C,G,][C,E,][C,=F,A,] | (G,>A,B,C-) [C,E,C] (C,E,,=F,,) | %16
 G,,4 C,2 (^F,,2 | G,,4) C,3 z | [C,E,G,]3 [C,E,G,] [C,=F,A,]>[C,E,G,][C,F,A,][C,D,B,] | %19
 [C,E,C][C,G,B,] [C,G,C]3 [C,G,][C,E,][C,=F,A,] | G,>A,B,C- [C,E,C] (C,E,,=F,,) | G,,4 C,3 C, | %22
 (C3 B,/A,/ [G,B,]3) [G,B,] | (D3 C/B,/) C3 (A,, | B,,6-) !fermata!B,,!pp! z | %25
 [E,,E,]4 [B,,,B,,]4 | [B,,,B,,]3 [B,,,B,,] [E,,E,]3 z | %27
 [^G,,E,^G,]3 [G,,E,G,] [A,,E,A,]3 [A,,E,] | %28
 [^G,,=D,^E,]2 ^C,^D,/E,/ [F,,C,F,]2- [F,,C,F,] ([A,=C]/[^G,B,]/) | %29
 ([F,A,][E,=G,^A,][^D,F,B,]B,,) B,,^C,/D,/ E,2 | [E,,E,]4 [=D,,=D,]4 | [C,,C,]4 [_B,,,_B,,]4 | %32
 [A,,,A,,]8 | [^A,,,^A,,]8 |!p! [B,,,B,,]2 [=A,,,=A,,]2 [B,,,B,,]4 | [D,,D,]4 [_D,,_D,]4 | %36
 [C,,C,]4 [B,,,B,,]4 |!f! [A,,,A,,]8 |!ff! [^F,,^F,]4!ff! (([^D,,^D,]4 | %39
!p! [E,,E,]2)) [A,,,A,,]2 [B,,,B,,]4 | [E,,E,]2 [A,,,A,,]2 [B,,,B,,]4 | [E,,B,,E,]8 |] %42
V:5
 x8 | x8 | x8 | x8 | x8 | x8 | x8 | x8 | x8 | x4 (C2 B,2) | x8 | x8 | x8 | x8 | x8 | x8 | x8 | %17
 D3 x4 z | x8 | x8 | x8 | x8 | x8 | x8 | x8 | x8 | x8 | x8 | x8 | x8 | x8 | x8 | x8 | x8 | x8 | %35
 x8 | x8 | x8 | x8 | x8 | x8 | x8 |] %42
V:6
 x8 | x8 | x8 | x8 | x8 | x8 | x8 | x8 | x8 | x8 | x8 | x8 | x8 | x8 | x8 | [C,E,]4- x4 | x8 | x8 | %18
 x8 | x8 | [C,E,]4- x4 | x8 | ^F,4 x4 | ^G,4 A,3 x | x8 | x8 | x8 | x8 | x8 | x4 E,,4 | x8 | x8 | %32
 x8 | x8 | x8 | x8 | x8 | x8 | x8 | x8 | x8 | x8 |] %42

